X:1
T:Arthur Darley's Jig
T:Bruckless Shore
C:Arthur Darley
R:jig
M:6/8 % But second bar is 9/8!
L:1/8
K:D
~A3 AGF|[M:9/8] EDC D3 d2e|[M:6/8] fgf edc|d3 d2e|
fgf edc|dAA BAG|FED EDC|DA,B, CDE|
Ddd Aee|Aff Agg|fed edc|d2d dcB:|
A=ff fef|A=ff fef|A=ff Agg|Aaa A_bb|
A=ff fef|A=ff f2g|=fed ed^c|1 d2d d=c_B:|2 d2d d2e|]
fgf edc|dAA BAG|FED EDC|DA,B, CDE|
Ddd Aee|Aff Agg|fed edc|1 d2d d2e:|2 d2d dcB|]
</abc>
